src/assets/EASYTECH.svg

<?xml version="1.0" encoding="UTF-8"?>
<svg xmlns="http://www.w3.org/2000/svg" xmlns:xlink="http://www.w3.org/1999/xlink" width="659.97pt" height="179.17pt" viewBox="0 0 659.97 179.17" version="1.1">
<defs>
<clipPath id="clip1">
  <path d="M 649 73 L 659.96875 73 L 659.96875 81 L 649 81 Z M 649 73 "/>
</clipPath>
<clipPath id="clip2">
  <path d="M 247 74 L 333 74 L 333 179.171875 L 247 179.171875 Z M 247 74 "/>
</clipPath>
</defs>
<g id="surface1">
<path style=" stroke:none;fill-rule:nonzero;fill:rgb(93.299866%,16.099548%,14.099121%);fill-opacity:1;" d="M 17.128906 45.066406 C 1.675781 45.027344 0.0351563 35.003906 0 30.722656 L 8.171875 30.722656 C 8.207031 32.753906 9.132813 37.5 16.523438 37.5 C 18.875 37.5 20.730469 37.144531 22.089844 36.464844 C 23.835938 35.539063 24.726563 34.074219 24.726563 32.078125 C 24.726563 28.9375 22.015625 28.007813 17.589844 26.867188 L 13.308594 25.832031 C 6.78125 24.191406 0.605469 22.65625 0.605469 13.199219 C 0.605469 11.34375 1 7.777344 3.425781 4.816406 C 6.066406 1.605469 10.277344 -0.00390625 15.984375 -0.00390625 C 21.445313 -0.00390625 25.585938 1.675781 28.367188 4.957031 C 31.222656 8.347656 31.578125 12.308594 31.578125 13.878906 L 23.445313 13.878906 C 23.230469 12.128906 22.695313 7.527344 15.378906 7.527344 C 13.59375 7.527344 11.953125 7.921875 10.777344 8.632813 C 9.3125 9.523438 8.5625 10.847656 8.5625 12.558594 C 8.5625 15.878906 11.132813 16.519531 12.703125 16.910156 L 22.371094 19.480469 C 27.832031 20.90625 32.863281 23.300781 32.863281 31.007813 C 32.863281 36.535156 30.6875 40.496094 26.296875 42.851563 C 22.695313 44.851563 18.660156 45.066406 17.128906 45.066406 "/>
<path style=" stroke:none;fill-rule:nonzero;fill:rgb(93.299866%,16.099548%,14.099121%);fill-opacity:1;" d="M 52.847656 43.925781 L 44.351563 43.925781 L 44.351563 8.847656 L 32.328125 8.847656 L 32.328125 1.140625 L 64.835938 1.140625 L 64.835938 8.847656 L 52.847656 8.847656 L 52.847656 43.925781 "/>
<path style=" stroke:none;fill-rule:nonzero;fill:rgb(93.299866%,16.099548%,14.099121%);fill-opacity:1;" d="M 189.046875 43.925781 L 158.679688 43.925781 L 158.644531 1.105469 L 188.082031 1.105469 L 188.082031 8.882813 L 166.996094 8.882813 L 166.996094 17.660156 L 186.371094 17.660156 L 186.371094 25.402344 L 166.996094 25.402344 L 166.996094 36.179688 L 189.046875 36.179688 L 189.046875 43.925781 "/>
<path style=" stroke:none;fill-rule:nonzero;fill:rgb(93.299866%,16.099548%,14.099121%);fill-opacity:1;" d="M 70.6875 27.617188 L 80.605469 27.617188 L 75.71875 10.953125 Z M 85.53125 43.925781 L 82.960938 35.144531 L 68.402344 35.144531 L 65.65625 43.925781 L 56.699219 43.925781 L 70.9375 1.140625 L 80.644531 1.140625 L 94.738281 43.925781 L 85.53125 43.925781 "/>
<path style=" stroke:none;fill-rule:nonzero;fill:rgb(93.299866%,16.099548%,14.099121%);fill-opacity:1;" d="M 105.050781 21.015625 L 112.6875 21.050781 C 118.785156 21.050781 118.785156 16.449219 118.785156 14.484375 C 118.785156 10.347656 116.683594 8.667969 111.578125 8.667969 L 105.050781 8.667969 Z M 105.050781 43.925781 L 96.59375 43.925781 L 96.558594 1.140625 L 114.824219 1.140625 C 122.496094 1.140625 127.28125 6.421875 127.28125 14.878906 C 127.28125 17.089844 126.636719 20.445313 124.925781 23.191406 C 122.675781 26.761719 119.179688 28.578125 114.507813 28.578125 L 105.050781 28.578125 L 105.050781 43.925781 "/>
<path style=" stroke:none;fill-rule:nonzero;fill:rgb(93.299866%,16.099548%,14.099121%);fill-opacity:1;" d="M 129.136719 39.179688 L 129.136719 7.882813 C 129.136719 3.53125 132.773438 -0.00390625 137.308594 -0.00390625 C 141.589844 -0.00390625 144.941406 2.960938 145.550781 7.136719 L 148.261719 21.085938 L 140.484375 22.585938 L 137.628906 7.8125 C 137.628906 7.8125 137.59375 7.632813 137.414063 7.632813 C 137.308594 7.671875 137.269531 7.777344 137.269531 7.847656 L 137.308594 36.179688 L 156.859375 36.179688 L 156.859375 43.925781 L 133.417969 43.925781 C 131.027344 43.925781 129.136719 41.496094 129.136719 39.179688 "/>
<path style=" stroke:none;fill-rule:nonzero;fill:rgb(93.299866%,16.099548%,14.099121%);fill-opacity:1;" d="M 222.230469 3.136719 L 222.765625 3.136719 C 223.195313 3.136719 223.621094 3.101563 223.621094 2.601563 C 223.621094 2.175781 223.230469 2.101563 222.910156 2.101563 L 222.230469 2.101563 Z M 221.730469 1.675781 L 222.980469 1.710938 C 223.765625 1.675781 224.121094 1.996094 224.121094 2.640625 C 224.121094 3.210938 223.765625 3.460938 223.265625 3.496094 L 224.195313 4.957031 L 223.65625 4.957031 L 222.765625 3.53125 L 222.230469 3.53125 L 222.230469 4.957031 L 221.730469 4.957031 L 221.730469 1.710938 "/>
<path style=" stroke:none;fill-rule:nonzero;fill:rgb(93.299866%,16.099548%,14.099121%);fill-opacity:1;" d="M 222.804688 0.960938 C 221.519531 0.960938 220.445313 2.03125 220.445313 3.316406 C 220.445313 4.636719 221.519531 5.671875 222.804688 5.671875 C 224.121094 5.671875 225.15625 4.636719 225.15625 3.316406 C 225.15625 2.03125 224.121094 0.960938 222.804688 0.960938 Z M 225.621094 3.316406 C 225.621094 4.851563 224.371094 6.136719 222.804688 6.136719 C 221.269531 6.136719 220.019531 4.851563 220.019531 3.316406 C 220.019531 1.78125 221.269531 0.53125 222.804688 0.53125 C 224.371094 0.53125 225.621094 1.78125 225.621094 3.316406 "/>
<path style=" stroke:none;fill-rule:nonzero;fill:rgb(93.299866%,16.099548%,14.099121%);fill-opacity:1;" d="M 207.566406 45.066406 C 192.152344 45.027344 190.472656 35.003906 190.472656 30.722656 L 198.609375 30.722656 C 198.679688 32.753906 199.574219 37.5 206.960938 37.5 C 209.3125 37.5 211.203125 37.144531 212.5625 36.464844 C 214.308594 35.539063 215.164063 34.074219 215.164063 32.078125 C 215.164063 28.9375 212.488281 28.007813 208.03125 26.867188 L 203.78125 25.832031 C 197.253906 24.191406 191.078125 22.65625 191.078125 13.199219 C 191.078125 11.34375 191.4375 7.777344 193.898438 4.816406 C 196.503906 1.605469 200.75 -0.00390625 206.425781 -0.00390625 C 211.882813 -0.00390625 216.058594 1.675781 218.804688 4.957031 C 221.695313 8.347656 222.015625 12.308594 222.054688 13.878906 L 213.882813 13.878906 C 213.703125 12.128906 213.132813 7.527344 205.816406 7.527344 C 204.03125 7.527344 202.429688 7.921875 201.214844 8.632813 C 199.75 9.523438 199.003906 10.847656 199.003906 12.558594 C 199.003906 15.878906 201.605469 16.519531 203.140625 16.910156 L 212.847656 19.480469 C 218.269531 20.90625 223.339844 23.300781 223.339844 31.007813 C 223.339844 36.535156 221.125 40.496094 216.773438 42.851563 C 213.132813 44.851563 209.136719 45.066406 207.566406 45.066406 "/>
<path style=" stroke:none;fill-rule:nonzero;fill:rgb(57.598877%,58.399963%,59.599304%);fill-opacity:1;" d="M 643.453125 78.597656 C 643.492188 79.640625 644.425781 79.976563 645.410156 79.976563 C 646.152344 79.976563 647.167969 79.808594 647.167969 78.914063 C 647.167969 78.003906 645.988281 77.851563 644.792969 77.589844 C 643.609375 77.328125 642.40625 76.949219 642.40625 75.578125 C 642.40625 74.152344 643.863281 73.558594 645.132813 73.558594 C 646.734375 73.558594 648.015625 74.054688 648.113281 75.78125 L 646.925781 75.78125 C 646.828125 74.878906 646.011719 74.585938 645.21875 74.585938 C 644.507813 74.585938 643.675781 74.785156 643.675781 75.496094 C 643.675781 76.339844 644.941406 76.480469 646.058594 76.734375 C 647.257813 77.003906 648.4375 77.382813 648.4375 78.769531 C 648.4375 80.457031 646.820313 81.003906 645.339844 81.003906 C 643.707031 81.003906 642.328125 80.363281 642.257813 78.597656 L 643.453125 78.597656 "/>
<g clip-path="url(#clip1)" clip-rule="nonzero">
<path style=" stroke:none;fill-rule:nonzero;fill:rgb(57.598877%,58.399963%,59.599304%);fill-opacity:1;" d="M 649.761719 73.722656 L 650.886719 73.722656 L 650.886719 74.769531 L 650.917969 74.769531 C 651.457031 73.96875 652.269531 73.558594 653.269531 73.558594 C 654.15625 73.558594 654.972656 73.898438 655.265625 74.769531 C 655.765625 74.007813 656.621094 73.558594 657.550781 73.558594 C 659.007813 73.558594 659.972656 74.152344 659.972656 75.625 L 659.972656 80.839844 L 658.777344 80.839844 L 658.777344 76.171875 C 658.777344 75.292969 658.539063 74.585938 657.367188 74.585938 C 656.21875 74.585938 655.464844 75.308594 655.464844 76.410156 L 655.464844 80.839844 L 654.269531 80.839844 L 654.269531 76.171875 C 654.269531 75.253906 653.976563 74.585938 652.90625 74.585938 C 651.480469 74.585938 650.957031 75.871094 650.957031 76.410156 L 650.957031 80.839844 L 649.761719 80.839844 L 649.761719 73.722656 "/>
</g>
<path style=" stroke:none;fill-rule:nonzero;fill:rgb(57.598877%,58.399963%,59.599304%);fill-opacity:1;" d="M 408.929688 119.96875 C 409.398438 130.6875 415.730469 137.789063 426.851563 137.789063 C 433.183594 137.789063 439.355469 134.917969 441.835938 129.183594 L 466.390625 129.183594 C 461.605469 147.304688 444.460938 155.15625 426.542969 155.15625 C 400.4375 155.15625 382.675781 139.753906 382.675781 113.480469 C 382.675781 89.464844 402.292969 72.246094 425.925781 72.246094 C 454.648438 72.246094 469.019531 93.386719 467.785156 119.96875 Z M 441.519531 105.617188 C 441.058594 96.863281 434.730469 89.613281 425.925781 89.613281 C 416.65625 89.613281 410.476563 96.109375 408.929688 105.617188 L 441.519531 105.617188 "/>
<path style=" stroke:none;fill-rule:nonzero;fill:rgb(57.598877%,58.399963%,59.599304%);fill-opacity:1;" d="M 529.25 103.207031 C 529.097656 96.558594 523.070313 91.875 516.429688 91.875 C 501.757813 91.875 499.433594 104.109375 499.433594 114.988281 C 499.433594 125.105469 503.917969 135.523438 515.035156 135.523438 C 524.148438 135.523438 528.78125 130.390625 530.019531 122.082031 L 555.515625 122.082031 C 553.1875 143.074219 536.507813 155.160156 515.195313 155.160156 C 491.097656 155.160156 473.183594 138.996094 473.183594 114.988281 C 473.183594 90.070313 489.394531 72.25 515.195313 72.25 C 535.121094 72.25 552.878906 82.519531 554.738281 103.207031 L 529.25 103.207031 "/>
<path style=" stroke:none;fill-rule:nonzero;fill:rgb(57.598877%,58.399963%,59.599304%);fill-opacity:1;" d="M 561.675781 45.066406 L 587.933594 45.066406 L 587.933594 85.234375 L 588.25 85.234375 C 592.269531 77.234375 603.074219 72.25 612.644531 72.25 C 639.371094 72.25 641.535156 91.273438 641.535156 102.601563 L 641.535156 152.890625 L 615.277344 152.890625 L 615.277344 114.988281 C 615.277344 104.257813 616.511719 93.390625 602.148438 93.390625 C 592.269531 93.390625 587.933594 101.542969 587.933594 110.152344 L 587.933594 152.890625 L 561.675781 152.890625 L 561.675781 45.066406 "/>
<path style=" stroke:none;fill-rule:nonzero;fill:rgb(74.099731%,79.998779%,16.499329%);fill-opacity:1;" d="M 43.582031 156.421875 C 31.003906 156.375 20.632813 151.128906 13.667969 144.867188 C 6.144531 137.835938 0.199219 126.3125 0.00390625 112.527344 C -0.125 101.679688 4.691406 89.335938 16.285156 80.523438 C 25.640625 73.242188 35.585938 70.882813 43.367188 70.921875 C 45.820313 70.921875 48.070313 71.144531 50.078125 71.460938 C 55.339844 72.308594 58.894531 77.15625 58.03125 82.292969 C 57.167969 87.433594 52.207031 90.910156 46.957031 90.070313 C 45.871094 89.898438 44.664063 89.777344 43.367188 89.785156 C 39.191406 89.835938 34.191406 90.785156 28.25 95.324219 C 21.269531 100.863281 19.429688 106.417969 19.296875 112.527344 C 19.097656 120.109375 23.722656 128.515625 26.757813 131.011719 C 30.609375 134.511719 36.828125 137.601563 43.582031 137.554688 C 47.144531 137.546875 50.996094 136.789063 55.273438 134.671875 C 59.640625 132.5 62.777344 129.5 64.820313 126.429688 C 66.882813 123.398438 67.707031 120.242188 67.691406 118.515625 C 67.746094 113.300781 72.109375 109.128906 77.4375 109.183594 C 82.761719 109.238281 87.039063 113.5 86.984375 118.707031 C 86.878906 124.832031 84.789063 130.964844 80.984375 136.730469 C 77.167969 142.460938 71.5 147.761719 64.015625 151.484375 C 57.144531 154.898438 50.140625 156.421875 43.605469 156.421875 L 43.582031 156.421875 "/>
<path style=" stroke:none;fill-rule:nonzero;fill:rgb(74.099731%,79.998779%,16.499329%);fill-opacity:1;" d="M 25.753906 124.636719 C 22.75 120.34375 23.875 114.472656 28.28125 111.53125 L 67 85.679688 C 71.40625 82.738281 77.40625 83.847656 80.40625 88.152344 C 83.410156 92.445313 82.277344 98.316406 77.878906 101.257813 L 39.160156 127.109375 C 37.496094 128.21875 35.601563 128.75 33.722656 128.75 C 30.648438 128.75 27.621094 127.316406 25.753906 124.636719 "/>
<path style=" stroke:none;fill-rule:nonzero;fill:rgb(74.099731%,79.998779%,16.499329%);fill-opacity:1;" d="M 92.769531 98.675781 C 93.238281 88.40625 98.183594 81.757813 105.28125 77.6875 C 112.386719 73.757813 121.660156 72.25 130.769531 72.25 C 149.769531 72.25 168.152344 76.324219 168.152344 98.523438 L 168.152344 132.808594 C 168.152344 139.445313 168.152344 146.695313 171.242188 152.894531 L 144.824219 152.894531 C 143.898438 150.476563 143.589844 148.058594 143.28125 145.492188 C 136.484375 152.433594 126.445313 155.160156 116.863281 155.160156 C 101.574219 155.160156 89.53125 147.609375 89.53125 131.445313 C 89.53125 105.921875 117.949219 107.890625 136.175781 104.261719 C 140.652344 103.355469 143.121094 101.851563 143.121094 97.019531 C 143.121094 91.125 135.863281 88.859375 130.460938 88.859375 C 123.203125 88.859375 118.570313 92.035156 117.332031 98.675781 Z M 126.753906 139.296875 C 139.265625 139.296875 143.433594 132.347656 142.8125 116.191406 C 139.105469 118.460938 132.316406 118.910156 126.601563 120.421875 C 120.730469 121.777344 115.785156 124.195313 115.785156 130.390625 C 115.785156 136.730469 120.882813 139.296875 126.753906 139.296875 "/>
<path style=" stroke:none;fill-rule:nonzero;fill:rgb(74.099731%,79.998779%,16.499329%);fill-opacity:1;" d="M 198.878906 127.066406 C 198.878906 130.996094 200.574219 133.863281 203.207031 135.820313 C 205.679688 137.636719 209.226563 138.546875 212.9375 138.546875 C 218.03125 138.546875 225.296875 136.433594 225.296875 130.234375 C 225.296875 124.199219 217.105469 122.988281 212.46875 121.933594 C 195.949219 117.851563 175.246094 117.402344 175.246094 96.261719 C 175.246094 77.382813 196.097656 72.246094 211.851563 72.246094 C 229.464844 72.246094 247.84375 77.230469 248.773438 97.617188 L 224.519531 97.617188 C 224.519531 94.296875 223.28125 92.179688 221.121094 90.828125 C 218.957031 89.464844 216.027344 88.863281 212.777344 88.863281 C 208.460938 88.863281 201.503906 89.3125 201.503906 94.75 C 201.503906 102.148438 219.117188 103.511719 231.160156 106.078125 C 247.378906 109.25 251.554688 120.71875 251.554688 127.21875 C 251.554688 148.207031 231.160156 155.15625 213.09375 155.15625 C 194.09375 155.15625 174.628906 148.964844 173.859375 127.066406 L 198.878906 127.066406 "/>
<path style=" stroke:none;fill-rule:nonzero;fill:rgb(57.598877%,58.399963%,59.599304%);fill-opacity:1;" d="M 378.664063 91.125 L 378.664063 74.515625 L 362.445313 74.515625 L 362.445313 50.804688 L 336.1875 50.804688 L 336.1875 74.515625 L 332.789063 74.515625 L 326.625 91.125 L 336.1875 91.125 L 336.1875 126.011719 C 336.1875 147.300781 341.898438 153.644531 364.300781 153.644531 C 369.085938 153.644531 373.871094 153.042969 378.664063 152.894531 L 378.664063 134.011719 C 376.351563 134.011719 374.027344 134.3125 371.867188 134.3125 C 366.144531 134.3125 362.445313 132.960938 362.445313 126.761719 L 362.445313 91.125 L 378.664063 91.125 "/>
<g clip-path="url(#clip2)" clip-rule="nonzero">
<path style=" stroke:none;fill-rule:nonzero;fill:rgb(74.099731%,79.998779%,16.499329%);fill-opacity:1;" d="M 332.789063 74.511719 L 305.914063 74.511719 L 290.78125 125.554688 L 290.472656 125.554688 L 275.332031 74.511719 L 247.527344 74.511719 L 268.230469 129.03125 C 269.769531 133.253906 274.863281 145.339844 274.863281 149.570313 C 274.863281 155.003906 270.386719 158.324219 264.363281 158.324219 L 255.253906 158.324219 L 255.253906 179.167969 L 267.613281 179.167969 C 285.371094 179.167969 294.789063 177.054688 301.128906 159.835938 L 326.625 91.125 L 332.789063 74.515625 L 332.789063 74.511719 "/>
</g>
</g>
</svg>

<svg xmlns="http://www.w3.org/2000/svg" width="879.96" height="238.893" viewBox="0 0 659.97 179.17"><defs><clipPath id="a"><path d="M649 73h10.969v8H649Zm0 0"/></clipPath><clipPath id="b"><path d="M247 74h86v105.172h-86Zm0 0"/></clipPath></defs><path d="M17.129 45.066C1.676 45.027.035 35.004 0 30.723h8.172c.035 2.03.96 6.777 8.351 6.777 2.352 0 4.207-.355 5.567-1.035 1.746-.926 2.637-2.39 2.637-4.387 0-3.14-2.711-4.07-7.137-5.21l-4.281-1.036C6.78 24.192.605 22.656.605 13.199c0-1.855.395-5.422 2.82-8.383 2.641-3.21 6.852-4.82 12.56-4.82 5.46 0 9.6 1.68 12.382 4.961 2.856 3.39 3.211 7.352 3.211 8.922h-8.133c-.215-1.75-.75-6.352-8.066-6.352-1.785 0-3.426.395-4.602 1.106-1.464.89-2.214 2.215-2.214 3.926 0 3.32 2.57 3.96 4.14 4.351l9.668 2.57c5.461 1.426 10.492 3.82 10.492 11.528 0 5.527-2.175 9.488-6.566 11.844-3.602 2-7.637 2.214-9.168 2.214M52.848 43.926h-8.496V8.848H32.328V1.14h32.508v7.707H52.848zM189.047 43.926H158.68l-.035-42.82h29.437v7.777h-21.086v8.777h19.375v7.742h-19.375V36.18h22.05zM70.688 27.617h9.917L75.72 10.953ZM85.53 43.926l-2.57-8.781H68.402l-2.746 8.78H56.7L70.938 1.142h9.707l14.093 42.785zM105.05 21.016l7.638.035c6.097 0 6.097-4.602 6.097-6.567 0-4.136-2.101-5.816-7.207-5.816h-6.527Zm0 22.91h-8.456L96.559 1.14h18.265c7.672 0 12.457 5.28 12.457 13.738 0 2.21-.644 5.566-2.355 8.312-2.25 3.57-5.746 5.387-10.418 5.387h-9.457zM129.137 39.18V7.883c0-4.352 3.636-7.887 8.172-7.887 4.28 0 7.632 2.965 8.242 7.14l2.71 13.95-7.777 1.5-2.855-14.773s-.035-.18-.215-.18a.23.23 0 0 0-.144.215l.039 28.332h19.55v7.746h-23.441c-2.39 0-4.281-2.43-4.281-4.746M222.23 3.137h.536c.43 0 .855-.035.855-.535 0-.426-.39-.5-.71-.5h-.68Zm-.5-1.461 1.25.035c.786-.035 1.141.285 1.141.93 0 .57-.355.82-.855.855l.93 1.461h-.54l-.89-1.426h-.536v1.426h-.5V1.711" style="stroke:none;fill-rule:nonzero;fill:#ee2924;fill-opacity:1"/><path d="M222.805.96c-1.285 0-2.36 1.071-2.36 2.356a2.356 2.356 0 0 0 2.36 2.356 2.33 2.33 0 0 0 2.351-2.356 2.35 2.35 0 0 0-2.351-2.355m2.816 2.356c0 1.536-1.25 2.82-2.816 2.82-1.535 0-2.785-1.284-2.785-2.82a2.79 2.79 0 0 1 2.785-2.785c1.566 0 2.816 1.25 2.816 2.785M207.566 45.066c-15.414-.039-17.093-10.062-17.093-14.343h8.136c.07 2.03.965 6.777 8.352 6.777 2.351 0 4.242-.355 5.601-1.035 1.747-.926 2.602-2.39 2.602-4.387 0-3.14-2.676-4.07-7.133-5.21l-4.25-1.036c-6.527-1.64-12.703-3.176-12.703-12.633 0-1.855.36-5.422 2.82-8.383 2.606-3.21 6.852-4.82 12.528-4.82 5.457 0 9.633 1.68 12.379 4.961 2.89 3.39 3.21 7.352 3.25 8.922h-8.172c-.18-1.75-.75-6.352-8.067-6.352-1.785 0-3.386.395-4.601 1.106-1.465.89-2.211 2.215-2.211 3.926 0 3.32 2.601 3.96 4.137 4.351l9.707 2.57c5.422 1.426 10.492 3.82 10.492 11.528 0 5.527-2.215 9.488-6.567 11.844-3.64 2-7.636 2.214-9.207 2.214" style="stroke:none;fill-rule:nonzero;fill:#ee2924;fill-opacity:1"/><path d="M643.453 78.598c.04 1.043.973 1.379 1.957 1.379.742 0 1.758-.168 1.758-1.063 0-.91-1.18-1.062-2.375-1.324-1.184-.262-2.387-.64-2.387-2.012 0-1.426 1.457-2.02 2.727-2.02 1.601 0 2.883.497 2.98 2.223h-1.187c-.098-.902-.914-1.195-1.707-1.195-.711 0-1.543.2-1.543.91 0 .844 1.265.984 2.383 1.238 1.199.27 2.379.649 2.379 2.036 0 1.687-1.618 2.234-3.098 2.234-1.633 0-3.012-.64-3.082-2.406z" style="stroke:none;fill-rule:nonzero;fill:#939598;fill-opacity:1"/><g clip-path="url(#a)"><path d="M649.762 73.723h1.125v1.047h.031c.539-.801 1.352-1.211 2.352-1.211.886 0 1.703.34 1.996 1.21a2.71 2.71 0 0 1 2.285-1.21c1.457 0 2.422.593 2.422 2.066v5.215h-1.196v-4.668c0-.879-.238-1.586-1.41-1.586-1.148 0-1.902.723-1.902 1.824v4.43h-1.195v-4.668c0-.918-.293-1.586-1.364-1.586-1.426 0-1.949 1.285-1.949 1.824v4.43h-1.195z" style="stroke:none;fill-rule:nonzero;fill:#939598;fill-opacity:1"/></g><path d="M408.93 119.969c.468 10.719 6.8 17.82 17.922 17.82 6.332 0 12.503-2.871 14.984-8.605h24.555c-4.786 18.12-21.93 25.972-39.848 25.972-26.106 0-43.867-15.402-43.867-41.676 0-24.015 19.617-41.234 43.25-41.234 28.722 0 43.094 21.14 41.86 47.723Zm32.59-14.352c-.461-8.754-6.79-16.004-15.594-16.004-9.27 0-15.45 6.496-16.996 16.004zM529.25 103.207c-.152-6.648-6.18-11.332-12.82-11.332-14.672 0-16.996 12.234-16.996 23.113 0 10.117 4.484 20.535 15.601 20.535 9.113 0 13.746-5.132 14.985-13.441h25.496c-2.328 20.992-19.008 33.078-40.32 33.078-24.098 0-42.012-16.164-42.012-40.172 0-24.918 16.21-42.738 42.011-42.738 19.926 0 37.684 10.27 39.543 30.957zM561.676 45.066h26.258v40.168h.316c4.02-8 14.824-12.984 24.395-12.984 26.726 0 28.89 19.023 28.89 30.352v50.289h-26.258v-37.903c0-10.73 1.235-21.597-13.129-21.597-9.878 0-14.214 8.152-14.214 16.761v42.739h-26.258z" style="stroke:none;fill-rule:nonzero;fill:#939598;fill-opacity:1"/><path d="M43.582 156.422c-12.578-.047-22.95-5.293-29.914-11.555C6.145 137.836.199 126.313.004 112.527-.125 101.68 4.69 89.336 16.285 80.523c9.356-7.28 19.3-9.64 27.082-9.601 2.453 0 4.703.223 6.711.539 5.262.848 8.817 5.695 7.953 10.832-.863 5.14-5.824 8.617-11.074 7.777a22 22 0 0 0-3.59-.285c-4.176.05-9.176 1-15.117 5.54-6.98 5.538-8.82 11.093-8.953 17.202-.2 7.582 4.426 15.989 7.46 18.485 3.852 3.5 10.071 6.59 16.825 6.543 3.563-.008 7.414-.766 11.691-2.883 4.368-2.172 7.504-5.172 9.547-8.242 2.063-3.032 2.887-6.188 2.871-7.914.055-5.215 4.418-9.387 9.746-9.332 5.325.054 9.602 4.316 9.547 9.523-.105 6.125-2.195 12.258-6 18.023-3.816 5.73-9.484 11.032-16.968 14.754-6.871 3.414-13.875 4.938-20.41 4.938z" style="stroke:none;fill-rule:nonzero;fill:#bdcc2a;fill-opacity:1"/><path d="M25.754 124.637c-3.004-4.293-1.879-10.164 2.527-13.106L67 85.68c4.406-2.942 10.406-1.832 13.406 2.472 3.004 4.293 1.871 10.164-2.527 13.106L39.16 127.109a9.77 9.77 0 0 1-5.437 1.641c-3.075 0-6.102-1.434-7.97-4.113M92.77 98.676c.468-10.27 5.414-16.918 12.511-20.989 7.106-3.93 16.38-5.437 25.489-5.437 19 0 37.382 4.074 37.382 26.273v34.286c0 6.636 0 13.886 3.09 20.086h-26.418c-.926-2.418-1.234-4.836-1.543-7.403-6.797 6.942-16.836 9.668-26.418 9.668-15.289 0-27.332-7.55-27.332-23.715 0-25.523 28.418-23.554 46.645-27.183 4.476-.907 6.945-2.41 6.945-7.242 0-5.895-7.258-8.16-12.66-8.16-7.258 0-11.89 3.175-13.129 9.816Zm33.984 40.62c12.512 0 16.68-6.948 16.058-23.105-3.707 2.27-10.496 2.72-16.21 4.23-5.872 1.356-10.817 3.774-10.817 9.97 0 6.34 5.098 8.906 10.969 8.906M198.879 127.066c0 3.93 1.695 6.797 4.328 8.754 2.473 1.817 6.02 2.727 9.73 2.727 5.094 0 12.36-2.113 12.36-8.313 0-6.035-8.192-7.246-12.828-8.3-16.52-4.082-37.223-4.532-37.223-25.672 0-18.88 20.852-24.016 36.606-24.016 17.613 0 35.992 4.984 36.921 25.371H224.52c0-3.32-1.239-5.437-3.399-6.789-2.164-1.363-5.094-1.965-8.344-1.965-4.316 0-11.273.45-11.273 5.887 0 7.398 17.613 8.762 29.656 11.328 16.219 3.172 20.395 14.64 20.395 21.14 0 20.989-20.395 27.938-38.461 27.938-19 0-38.465-6.191-39.235-28.09z" style="stroke:none;fill-rule:nonzero;fill:#bdcc2a;fill-opacity:1"/><path d="M378.664 91.125v-16.61h-16.219v-23.71h-26.257v23.71h-3.399l-6.164 16.61h9.563v34.887c0 21.289 5.71 27.633 28.113 27.633 4.785 0 9.57-.602 14.363-.75v-18.883c-2.312 0-4.637.3-6.797.3-5.722 0-9.422-1.351-9.422-7.55V91.125z" style="stroke:none;fill-rule:nonzero;fill:#939598;fill-opacity:1"/><g clip-path="url(#b)"><path d="M332.79 74.512h-26.876l-15.133 51.043h-.308l-15.141-51.043h-27.805l20.703 54.52c1.54 4.222 6.633 16.308 6.633 20.538 0 5.434-4.476 8.754-10.5 8.754h-9.11v20.844h12.36c17.758 0 27.176-2.113 33.516-19.332l25.496-68.711 6.164-16.61z" style="stroke:none;fill-rule:nonzero;fill:#bdcc2a;fill-opacity:1"/></g></svg>
